X:1
T:Io me n'avedo
T:Archangelo Crivello
T:Source : Canzonette a la Romana a tre voce---Venetia---Ang.Gardano---1601. Editor : André Vierendeels 23/01/17).
T:Notes : Original clefs : C1, C1, F4
T:Io me n'avedo
T:©
T:©
C:Archangelo Crivello
Z:©
%%score [ 1 2 3 ]
L:1/8
Q:1/4=99
M:4/4
K:C
V:1 treble nm="Soprano 1" snm="S 1"
V:2 treble nm="Soprano 2" snm="S 2"
V:3 bass nm="Bass" snm="B"
V:1
"^1)" z2 c2 B2 B2 | B2 e2 d4 | c2 e2 edcB | A4 G2 c2 | cBAG F4 | E6 ^F2 | ^G2 A4 G2 |[M:2/4] A4 :| %8
w: Io me n'a-|ve- do'A- mo-|re, che ttu nvuoi sa- et-|tar- mi, che|tu vuoi sa- et- tar-|||mi|
w: Pa- ri- men-|te'ho ve- du-|to, che la ne- mi- ca|mi- a, che|la ne- mi- ca mi-|||a,|
[M:4/4] ^c4 d4 | c4 A2 c2- | c2 B2 c4 | z2 e2 d2 c2 | B4 A4 | d6 c2 | B4 A4 | z2 e2 d2 c2 | B4 A4 | %17
w: con le|tue do- ra-|te'ar- * mi,|per tra- pas-|sar- m'il|co- *|* re,|per tra- pas-|sar- m'il|
w: vie- ne'in|com- pa- ni-|* * a|con- tro'a me|per tuo|a- *|iu- to,|con- tro'a me|per tuo|
 d6 c2 | B4 A4- | A8 |] %20
w: co- *|* re.|_|
w: a- *|iu- to.|_|
V:2
"^2)""^1)" z2 A2 ^G2 G2 | ^G2 A2 F4 | E2 c2 cBAG | F4 E2 e2 | edcB A3 B | c2 BA Bc d2 | d2 c2 B4 | %7
w: Io me n'a-|ve- do'A- mo-|re, che tu vuoi sa- et-|tar- mi, che|tu vuoi sa- et- tar- *|||
w: Ma non sti-|mo'i tuoi dar-|di, del tuo fo- co non|te- mo, del|tuo fo- co non te- *|||
[M:2/4] A4 :|[M:4/4] E4 F3 G | A2 G2 F2 E2 | D4 E4- | E4 z4 | z2 e2 d2 c2 | B4 ^G2 A2- | %14
w: mi,|con le _|_ tue do- ra-|te'ar- mi|_|per tra- pas-|sar- m'il co-|
w: mo,|tu sai _|_ ben di chi|tre- mo,|_|al fol- go-|rar de guar-|
 A2 ^G2 A4- | A8 | z2 e2 d2 c2 | B4 ^G2 A2- | A2 ^G2 A4- | A8 |] %20
w: * * re,|_|per tra- pas-|sar- m'il co-|* * re.|_|
w: * * di,|_|al fol- go-|rar de guar-|* * di.|_|
V:3
"^3)""^1)""^4)" z2 A,2 E,2 E,2 | E,2 ^C,2 D,4 | A,4 z2 F,2 | F,G,A,B, C4 | C,2 C,2 D,E,F,G, | %5
w: Io me n'a-|ve do'A- mo-|re, che|tu vuoi sa- et- tar-|m, che tu vuoi sa- et-|
w: Pe- ro se|vin- cer vuo-|i, vi-|bra sa- et- te mil-|le, vi- bra sa- et- te|
 A,2 G,F, E,2 D,2 | E,8 |[M:2/4] A,,4 :|[M:4/4] A,4 D,3 E, | F,2 C,2 D,2 E,2 | G,4 C,4 | %11
w: tar- * * * *||mi,|con le _|_ tue do- ra-|te'ar- mi,|
w: mil- * * * *||le,|e'a- ven- *|* ta le fa-|vil- le,|
 z2 C,2 D,4 | E,4 F,4 | G,4 E,4- | E,4 A,,4- | A,,8- | A,,8- | A,,8- | A,,8- | A,,8 |] %20
w: per tra-|pas- sar-|mi'il co-|* re.|_|||||
w: in me|da gli'oc-|chi suo-|* i.|_|||||

